findly-builder/apps/searchassist/src/assets/icons/overview/graph-3.svg

<svg width="77" height="16" viewBox="0 0 77 16" fill="none" xmlns="http://www.w3.org/2000/svg">
<path d="M1 8.2967L3.26615 9.79121H4.83502L6.40389 8.2967H8.32141L10.2389 6.24176L11.2848 5.68132L12.6794 5.93407L13.551 5.06641L14.4959 4.56641L15.0357 4.56593L16.0252 4L17.195 8.06593L18.2747 9.06593L19.1292 9.13187L19.8942 11.0669L20.434 6.56593L22.0535 3.56593L24.2129 2.56593L26.912 3.06593L28.7167 4L30.6343 4.93407L33.9463 5.68132L36.2125 7.92308L39.1759 8.2967L40.9191 6.24176L43.7082 5.68132L46.6716 6.61539L49.2864 6.24176L51.5526 4.37363L54.1673 5.06593L56.7821 1L58.1429 3.30769L60.7577 4.30769L63.4063 6L67.1007 8L70.2047 11.9341C70.2047 11.9341 71.1784 12.5659 72.2581 12.8993" stroke="url(#paint0_linear)" stroke-width="2" stroke-linecap="round" stroke-linejoin="round"/>
<ellipse cx="73.4395" cy="12.3081" rx="3.5" ry="3.24174" fill="#DD3646"/>
<defs>
<linearGradient id="paint0_linear" x1="67.9394" y1="11.0664" x2="8.23137" y2="17.1595" gradientUnits="userSpaceOnUse">
<stop stop-color="#DD3646"/>
<stop offset="1" stop-color="#DD3646" stop-opacity="0.19"/>
</linearGradient>
</defs>
</svg>

<svg width="77" height="16" fill="none" xmlns="http://www.w3.org/2000/svg"><path d="M1 8.297 3.266 9.79h1.569l1.569-1.494H8.32l1.918-2.055 1.046-.56 1.394.252.872-.868.945-.5h.54l.99-.566 1.169 4.066 1.08 1 .854.066.765 1.935.54-4.501 1.62-3 2.159-1 2.699.5L28.717 4l1.917.934 3.312.747 2.267 2.242 2.963.374 1.743-2.055 2.79-.56 2.963.933 2.614-.373 2.267-1.868 2.614.692L56.782 1l1.36 2.308 2.616 1L63.406 6l3.695 2 3.104 3.934s.973.632 2.053.965" stroke="url(#a)" stroke-width="2" stroke-linecap="round" stroke-linejoin="round"/><ellipse cx="73.439" cy="12.308" rx="3.5" ry="3.242" fill="#DD3646"/><defs><linearGradient id="a" x1="67.939" y1="11.066" x2="8.231" y2="17.16" gradientUnits="userSpaceOnUse"><stop stop-color="#DD3646"/><stop offset="1" stop-color="#DD3646" stop-opacity=".19"/></linearGradient></defs></svg>
